X:1
T:Read to Me the Blessèd Bible
T:A. F. Myers
T:Read to Me the Blessèd Bible
T:Public Domain
T:Public Domain
T:Public Domain
C:A. F. Myers
Z:Public Domain
%%score ( 1 2 ) ( 3 4 )
L:1/8
M:4/4
K:A
V:1 treble 
V:2 treble 
V:3 bass 
V:4 bass 
V:1
 [Ec]>[Ec] [Ec]>[DB] [CA]2 [CE]2 | ([^B,^D]2 [=DF]2) [CE]4 | [CE]>[CE] [CE]>[CE] [EA]2 [Ec]2 | %3
w: 1.~Read to me the bless- èd|Bi- * ble,|On its sac- red pag- es|
w: 2.~’Tis a fount of liv- ing|wa- * ter,|Where the soul its thirst may|
w: 3.~Read to me the bless- èd|Bi- * ble,|Read it care- ful- ly and|
w: 4.~It is com- fort for the|trou- * bled,|To the lone- ly ’tis a|
w: 5.~When you read a- bout the|Ci- * ty,|Whose fair day ne’er ends with|
 [EB]6 z2 | [Ec]>[Ec] [Ec]>[DB] [CA]2 [CE]2 | ([^B,^D]2 [=DF]2) [CE]4 | %6
w: shine|Grace and truth and ten- der|mer- * cy,|
w: slake,|Bread of life it free- ly|of- * fers,|
w: slow,|’Tis a ref- uge and a|shel- * ter,|
w: guest,|For the pen- i- tent, ’tis|par- * don,|
w: night,|Death is not the king of|ter- * rors,|
 [CA]>[CE] [EA]>[FB] [Ec]2 [DB]2 | [CA]6 z2 ||"^Refrain" (AAAA) (GGGG) | (FFFF) (^EEEE) | %10
w: And a Sav- ior’s love di-|vine.|||
w: Un- to all who will par-|take.|Read * * * the * * *|Now * * * the * * *|
w: From the storm- y winds that|blow.|||
w: To the wear- y it is|rest.|||
w: But a mes- sen- ger of|light.|||
 F>[DF] [EA]>[EB] [Ec]2 [EA]2 | [EB]6 z2 | (cccc) (BBBB) | (AAAA) (GGGG) | %14
w: ||||
w: life burns low, These will cheer|When|the * * * ag- * * *|move * * * slow. * * *|
w: ||||
w: ||||
w: ||||
 F>[DF] [EG]>[DF] [CE]2 [DG]2 | [CA]6 z2 |] %16
w: ||
w: ||
w: ||
w: ||
w: ||
V:2
 x8 | x8 | x8 | x8 | x8 | x8 | x8 | x8 || c4 B4 | A4 G4 | F3/2 x13/2 | x8 | A4 G4 | F4 ^E4 | %14
w: ||||||||||||||
w: ||||||||Bi- ble,|lamp of|me,||èd feet||
 F3/2 x13/2 | x8 |] %16
w: ||
w: ||
V:3
 [A,,A,]>[A,,A,] [A,,A,]>[A,,E,] [A,,E,]2 [A,,A,]2 | [A,,A,]4 [A,,A,]4 | %2
w: ~ ~ ~ ~ ~ ~|~ ~|
 [A,,A,]>[A,,A,] [A,,A,]>[A,,A,] [C,A,]2 [E,A,]2 | [E,G,]6 z2 | %4
w: ~ ~ ~ ~ ~ ~|~|
 [A,,A,]>[A,,A,] [A,,A,]>[A,,E,] [A,,E,]2 [A,,A,]2 | [A,,A,]4 [A,,A,]4 | %6
w: ~ ~ ~ ~ ~ ~|~ ~|
 [A,,A,]>[A,,A,] [C,A,]>[D,A,] [E,A,]2 [E,G,]2 | [A,,A,]6 z2 || A,A,A,A, E,E,E,E, | %9
w: ~ ~ ~ ~ ~ ~|~|Read to me the words of Je- sus,|
 F,F,F,F, C,C,C,[C,B,] | [D,A,]>[D,A,] [C,A,]>[B,,G,] [A,,A,]2 [C,A,]2 | [E,G,]6 z2 | EEEE DDDD | %13
w: me the words of Je- sus, ~ ~|~ ~ ~ These will cheer|me|in the val- ley, These will cheer me|
 CCCC CCCC | [D,A,]>[D,A,] [D,A,]>[D,A,] [D,A,]2 E,2 | [A,,E,]6 z2 |] %16
w: val- ley, * * * * * *|||
V:4
 x8 | x8 | x8 | x8 | x8 | x8 | x8 | x8 || E4 D4 | C4 C3 x | x8 | x8 | A,4 E,4 | F,4 C,4 | x6 E,2 | %15
w: ||||||||Read to|~ ~|||in the|||
 x8 |] %16
w: |

